T: Kilfenora, The
M: 4/4
L: 1/8
K: Dmaj
~ |A3 ^G A>DF>A | B3 ^A (3Bcd c>B | ~ (3AAA (3dcB (3AAA (3GFE | (3DDD (3CCC D2 z2 ||d2 c2 A2 G>E | D2 C2 D4 ||A2 (3dcB A2 (3GFE | D2 A/G/F/E/ D4 ||dz c2 A2 G>E | Dz C2 D4 ||~ | A>d f2 a>d (3fga | A>c e2 g>c (3efg | ~~ | A>d (3fed a>df>a | A>c (3edc g>ce>g | ~
